assets/Blowfish/Flat/blowfish_flat.svg

<svg width="32" height="32" viewBox="0 0 32 32" fill="none" xmlns="http://www.w3.org/2000/svg">
<path d="M6.05397 6.31238L6.76487 9.34082C5.5466 10.634 4.64903 12.2327 4.19925 14.0098C4.15198 14.0033 4.10373 14 4.05469 14C3.4722 14 3 14.4722 3 15.0547C3 15.5196 3.30089 15.9143 3.71858 16.0547C3.30089 16.195 3 16.5897 3 17.0547C3 17.6372 3.4722 18.1094 4.05469 18.1094C4.63718 18.1094 5.10938 17.6372 5.10938 17.0547C5.10938 16.5897 4.80849 16.195 4.3908 16.0547C4.80849 15.9143 5.10938 15.5196 5.10938 15.0547C5.10938 14.5806 4.79656 14.1795 4.36606 14.0467C5.33504 13.966 7.0521 15.6934 9.30143 17.9563C10.5494 19.2118 11.9612 20.6322 13.5 22L13.6447 22.0207C17.1306 22.5205 21.814 23.1921 24.8444 14.189C24.5128 12.7754 23.899 11.4705 23.0655 10.3371L23.9769 7.4139C24.2301 6.60201 23.4186 5.86478 22.6346 6.19443L19.7721 7.39815C18.9399 6.92166 18.0372 6.55449 17.0834 6.31623L15.3903 2.59358C15.0382 1.81944 13.9419 1.81021 13.5769 2.57831L11.7841 6.35024C11.365 6.46074 10.956 6.5962 10.5588 6.75493L7.48014 5.19215C6.72181 4.80721 5.85962 5.48444 6.05397 6.31238Z" fill="#F3AD61"/>
<path d="M25.0107 16.8438C25.0107 15.3125 26.125 13 28.375 13C28.9375 13 28.9794 13.575 28.9794 15V19.9688C28.975 20.0175 28.9743 20.0732 28.9734 20.1328C28.9686 20.4937 28.9618 21.0001 28.125 21.0001C26.9063 21.0001 25.0107 19.6875 25.0107 16.8438Z" fill="#F3AD61"/>
<path d="M16.5146 27.0593L15.3903 29.5314C15.0382 30.3055 13.9419 30.3148 13.5769 29.5467L12.3853 27.0396C10.8401 26.7275 9.41634 26.0802 8.19331 25.1767L6.44889 26.0622C5.69056 26.4472 4.82837 25.7699 5.02272 24.942L5.60898 22.4445C4.51263 20.7729 3.875 18.7734 3.875 16.6251C3.875 15.7508 3.98058 14.9013 4.1797 14.0884C5.58596 13.5509 9.15766 12.8342 11.625 18.0626C12.7656 20.4797 21.7719 23.3174 24.8444 14.189C25.0279 14.9713 25.125 15.7868 25.125 16.6251C25.125 18.8324 24.4519 20.8826 23.2997 22.5814L23.9769 24.7536C24.2301 25.5655 23.4186 26.3027 22.6346 25.973L20.7828 25.1943C19.5387 26.108 18.0884 26.7573 16.5146 27.0593Z" fill="#FBB8AB"/>
<path d="M10.5528 10.5688C10.5288 10.4004 10.4326 7.98285 10.9888 7.83251C11.5451 7.68217 12.7298 9.82306 12.7779 9.96739C12.8381 10.1478 12.9283 10.9146 11.9961 11.2453C11.064 11.5761 10.5829 10.7792 10.5528 10.5688Z" fill="#D3883E"/>
<path d="M16.0625 12.125C15.0625 12.125 11.9375 13.875 11.6875 14.3125C11.4375 14.75 11.4063 17.5938 11.6875 18.2188C11.9688 18.8438 13.875 20.0625 15.5781 20.2812C16.83 20.442 18 20.2795 18 18.875V13.5C18 12.6875 17.3125 12.125 16.0625 12.125Z" fill="#D3883E"/>
<path d="M18.8885 8.23258C18.4026 7.9229 16.6812 9.62312 16.573 9.75436C16.4378 9.91842 16.1733 10.8108 17.0458 11.2766C17.9183 11.7424 18.424 11.1591 18.5168 10.9931C18.591 10.8603 19.3744 8.54226 18.8885 8.23258Z" fill="#D3883E"/>
<path d="M9.22048 15.5156C9.22048 15.8608 8.94066 16.1406 8.59548 16.1406C8.2503 16.1406 7.97048 15.8608 7.97048 15.5156C7.97048 15.1704 8.2503 14.8906 8.59548 14.8906C8.94066 14.8906 9.22048 15.1704 9.22048 15.5156Z" fill="#1C1C1C"/>
</svg>

<svg xmlns="http://www.w3.org/2000/svg" width="32" height="32" fill="none"><path fill="#F3AD61" d="m6.054 6.312.71 3.029A10.605 10.605 0 0 0 4.2 14.01a1.055 1.055 0 0 0-.48 2.045 1.055 1.055 0 1 0 .672 0 1.055 1.055 0 0 0-.025-2.008c.969-.081 2.686 1.646 4.935 3.91 1.248 1.255 2.66 2.675 4.199 4.043l.145.02c3.486.5 8.169 1.172 11.2-7.831a10.577 10.577 0 0 0-1.78-3.852l.912-2.923a1 1 0 0 0-1.342-1.22l-2.863 1.204a10.56 10.56 0 0 0-2.689-1.082L15.39 2.594a1 1 0 0 0-1.813-.016L11.784 6.35c-.419.11-.828.246-1.225.405L7.48 5.192a1 1 0 0 0-1.426 1.12ZM25.01 16.844c0-1.532 1.115-3.844 3.365-3.844.563 0 .604.575.604 2v4.969c-.004.048-.005.104-.006.164-.004.36-.011.867-.848.867-1.219 0-3.114-1.313-3.114-4.156Z"/><path fill="#FBB8AB" d="M16.515 27.06 15.39 29.53a1 1 0 0 1-1.813.016l-1.192-2.507a10.574 10.574 0 0 1-4.192-1.863l-1.744.885a1 1 0 0 1-1.426-1.12l.586-2.497a10.575 10.575 0 0 1-1.734-5.82c0-.874.106-1.724.305-2.537 1.406-.537 4.978-1.254 7.445 3.975 1.14 2.417 10.147 5.254 13.22-3.874.183.782.28 1.598.28 2.436 0 2.207-.673 4.258-1.825 5.956l.677 2.173a1 1 0 0 1-1.342 1.219l-1.852-.779a10.572 10.572 0 0 1-4.268 1.865Z"/><path fill="#D3883E" d="M10.553 10.569c-.024-.169-.12-2.586.436-2.736.556-.15 1.74 1.99 1.789 2.134.06.18.15.948-.782 1.278a1.083 1.083 0 0 1-1.443-.676ZM16.063 12.125c-1 0-4.125 1.75-4.375 2.188-.25.437-.282 3.28 0 3.906.28.625 2.187 1.843 3.89 2.062C16.83 20.442 18 20.28 18 18.875V13.5c0-.813-.688-1.375-1.938-1.375ZM18.889 8.233c-.486-.31-2.208 1.39-2.316 1.521-.135.164-.4 1.057.473 1.523.872.465 1.378-.118 1.47-.284.075-.133.858-2.45.373-2.76Z"/><path fill="#1C1C1C" d="M9.22 15.516a.625.625 0 1 1-1.25 0 .625.625 0 0 1 1.25 0Z"/></svg>
